images/vichy.svg

<svg width="305" height="88" viewBox="0 0 305 88" fill="none" xmlns="http://www.w3.org/2000/svg">
<path fill-rule="evenodd" clip-rule="evenodd" d="M193.318 17.0146H199.663V57.48H193.318V39.3482H171.001V57.48H164.653V17.0146H171.001V34.3583H193.318V17.0146ZM92.1165 72.08L95.5874 63.6114L99.0546 72.08H98.0636L97.1724 69.771H94.0042L93.115 72.08H92.1165ZM95.5874 65.66L94.3022 68.9974H96.8736L95.5874 65.66ZM148.195 72.08L151.665 63.6114L155.132 72.08H154.141L153.25 69.771H150.082L149.193 72.08H148.195ZM151.665 65.66L150.38 68.9974H152.952L151.665 65.66ZM189.696 72.08V64.1207H190.69V72.08H189.696ZM109.164 57.48V17.0146H115.515V57.48H109.164ZM93.7455 17H100.321L81.1797 57.48L62 17H68.5757C68.5757 17 81.2927 44.3479 81.2255 44.4156L93.7455 17ZM145.169 52.0612C149.275 52.0612 153.037 50.7077 155.963 48.4596V54.8601C152.776 56.5273 149.094 57.4819 145.169 57.4819C133.062 57.4819 123.247 48.4218 123.247 37.2444C123.247 26.0679 133.062 17.0068 145.169 17.0068C149.094 17.0068 152.776 17.9595 155.963 19.6277V26.0301C153.037 23.782 149.275 22.4285 145.169 22.4285C135.848 22.4285 129.029 28.6383 129.029 37.2444C129.029 45.8514 135.848 52.0612 145.169 52.0612ZM108.466 68.2306V71.319H109.437C110.751 71.319 111.323 70.7681 111.323 69.7961C111.323 68.8522 110.712 68.2306 109.325 68.2306H108.466ZM108.466 64.8894V67.4579H108.907C109.493 67.4579 109.913 67.3883 110.172 67.2469C110.526 67.0484 110.702 66.8286 110.702 66.2642C110.702 65.7152 110.536 65.297 110.203 65.1004C109.958 64.9591 109.529 64.8894 108.917 64.8894H108.466ZM107.723 72.08V64.1081H108.989C110.702 64.1081 111.56 64.8265 111.56 66.2642C111.56 66.9555 111.307 67.4744 110.804 67.8191C111.252 67.9313 111.608 68.1783 111.87 68.5587C112.132 68.9402 112.179 69.3739 112.179 69.86C112.179 70.6131 111.911 71.1815 111.375 71.562C110.891 71.9067 110.325 72.08 109.509 72.08H107.723ZM124.682 64.6871C123.786 64.6871 123.027 65.0095 122.402 65.6504C121.777 66.2922 121.463 67.0668 121.463 67.9711C121.463 68.8686 121.778 69.6402 122.406 70.286C123.034 70.9308 123.794 71.2541 124.682 71.2541C125.571 71.2541 126.331 70.9308 126.958 70.286C127.587 69.6402 127.901 68.8686 127.901 67.9711C127.901 67.0668 127.588 66.2922 126.963 65.6504C126.338 65.0095 125.579 64.6871 124.682 64.6871ZM124.682 63.8671C125.808 63.8671 126.771 64.2689 127.572 65.0734C128.374 65.8759 128.775 66.8451 128.775 67.9817C128.775 69.1184 128.374 70.0836 127.572 70.8814C126.771 71.6762 125.808 72.0751 124.682 72.0751C123.557 72.0751 122.594 71.6762 121.792 70.8814C120.991 70.0836 120.589 69.1184 120.589 67.9817C120.589 66.8451 120.991 65.8759 121.792 65.0734C122.594 64.2689 123.557 63.8671 124.682 63.8671ZM177.077 64.6871C176.181 64.6871 175.419 65.0095 174.796 65.6504C174.172 66.2922 173.858 67.0668 173.858 67.9711C173.858 68.8686 174.173 69.6402 174.801 70.286C175.429 70.9308 176.187 71.2541 177.077 71.2541C177.965 71.2541 178.724 70.9308 179.354 70.286C179.981 69.6402 180.295 68.8686 180.295 67.9711C180.295 67.0668 179.983 66.2922 179.356 65.6504C178.733 65.0095 177.972 64.6871 177.077 64.6871ZM177.077 63.8671C178.201 63.8671 179.165 64.2689 179.965 65.0734C180.769 65.8759 181.169 66.8451 181.169 67.9817C181.169 69.1184 180.769 70.0836 179.965 70.8814C179.165 71.6762 178.201 72.0751 177.077 72.0751C175.951 72.0751 174.989 71.6762 174.187 70.8814C173.385 70.0836 172.984 69.1184 172.984 67.9817C172.984 66.8451 173.385 65.8759 174.187 65.0734C174.989 64.2689 175.951 63.8671 177.077 63.8671ZM229.161 65.1043L228.482 65.5564C228.162 64.9805 227.724 64.6949 227.162 64.6949C226.819 64.6949 226.521 64.8109 226.271 65.0415C226.021 65.2718 225.894 65.5672 225.894 65.9244C225.894 66.2246 226.029 66.4879 226.302 66.7125C226.464 66.8451 226.726 66.9971 227.092 67.1645L227.598 67.3951C228.201 67.669 228.63 67.9391 228.887 68.2054C229.252 68.5771 229.435 69.0487 229.435 69.6247C229.435 70.3112 229.202 70.8901 228.735 71.3635C228.268 71.837 227.7 72.0732 227.031 72.0732C226.422 72.0732 225.904 71.8854 225.474 71.5117C225.044 71.137 224.769 70.6413 224.648 70.0246L225.479 69.7816C225.535 70.195 225.702 70.5435 225.986 70.8272C226.271 71.1118 226.612 71.2532 227.011 71.2532C227.43 71.2532 227.797 71.104 228.111 70.8078C228.427 70.5096 228.584 70.1427 228.584 69.708C228.584 69.2936 228.437 68.9596 228.147 68.6982C227.964 68.5307 227.64 68.3429 227.172 68.1318L226.707 67.9208C226.173 67.6835 225.784 67.4386 225.54 67.185C225.209 66.8413 225.044 66.4104 225.044 65.8925C225.044 65.297 225.26 64.8051 225.693 64.4208C226.098 64.0568 226.595 63.8738 227.183 63.8738C228.076 63.8738 228.735 64.2834 229.161 65.1043ZM212.987 72.08V64.1284H217.202V64.9504H213.841V67.3127H216.948V68.1356H213.841V71.2561H217.202V72.08H212.987ZM82.0839 64.1226V71.2561H84.2014V72.08H81.2283V64.1226H82.0839ZM164.372 64.9446V72.0791H163.516V64.9446H161.662V64.1207H166.244V64.9446H164.372ZM137.314 64.9427V67.8025H137.578C138.171 67.8025 138.615 67.7194 138.913 67.549C139.321 67.3244 139.524 66.9342 139.524 66.3785C139.524 65.7869 139.328 65.3831 138.934 65.1644C138.655 65.0162 138.2 64.9427 137.568 64.9427H137.314ZM137.314 68.5839V72.08H136.458V64.1187H137.568C139.443 64.1187 140.382 64.8497 140.382 66.3135C140.382 66.9274 140.207 67.4347 139.86 67.8355C139.515 68.2353 139.046 68.461 138.455 68.5104L140.9 72.08H139.851L137.528 68.5839H137.314ZM200.965 64.9427V67.8025H201.228C201.819 67.8025 202.265 67.7194 202.563 67.549C202.972 67.3244 203.174 66.9342 203.174 66.3785C203.174 65.7869 202.977 65.3831 202.583 65.1644C202.304 65.0162 201.851 64.9427 201.218 64.9427H200.965ZM200.965 68.5839V72.08H200.109V64.1187H201.218C203.093 64.1187 204.03 64.8497 204.03 66.3135C204.03 66.9274 203.856 67.4347 203.51 67.8355C203.164 68.2353 202.696 68.461 202.104 68.5104L204.55 72.08H203.501L201.178 68.5839H200.965ZM245.6 17.0145L228.317 40.0917V57.48H222.44V40.0917L205.159 17.0145H211.945L225.379 35.0457L238.813 17.0145H245.6Z" fill="black"/>
</svg>

<svg width="190" height="50" xmlns="http://www.w3.org/2000/svg" xmlns:svg="http://www.w3.org/2000/svg" xmlns:xlink="http://www.w3.org/1999/xlink">
 <!-- Created with SVG-edit - https://github.com/SVG-Edit/svgedit-->
 <defs>
  <symbol height="88" id="svg_47" viewBox="0 0 305 88" width="305" xmlns="http://www.w3.org/2000/svg">
   <path clip-rule="evenodd" d="m193.32,17.01l6.34,0l0,40.47l-6.34,0l0,-18.13l-22.32,0l0,18.13l-6.35,0l0,-40.47l6.35,0l0,17.35l22.32,0l0,-17.35zm-101.2,55.07l3.47,-8.47l3.46,8.47l-0.99,0l-0.89,-2.31l-3.17,0l-0.89,2.31l-0.99,0zm3.47,-6.42l-1.29,3.34l2.57,0l-1.28,-3.34zm52.6,6.42l3.47,-8.47l3.47,8.47l-0.99,0l-0.89,-2.31l-3.17,0l-0.89,2.31l-1,0zm3.47,-6.42l-1.28,3.34l2.57,0l-1.29,-3.34zm38.04,6.42l0,-7.96l0.99,0l0,7.96l-0.99,0zm-80.54,-14.6l0,-40.47l6.36,0l0,40.47l-6.36,0zm-15.41,-40.48l6.57,0l-19.14,40.48l-19.18,-40.48l6.58,0c0,0 12.71,27.35 12.65,27.42l12.52,-27.42zm51.42,35.06c4.11,0 7.87,-1.35 10.79,-3.6l0,6.4c-3.18,1.67 -6.87,2.62 -10.79,2.62c-12.11,0 -21.92,-9.06 -21.92,-20.24c0,-11.17 9.81,-20.23 21.92,-20.23c3.92,0 7.61,0.95 10.79,2.62l0,6.4c-2.92,-2.25 -6.68,-3.6 -10.79,-3.6c-9.32,0 -16.14,6.21 -16.14,14.81c0,8.61 6.82,14.82 16.14,14.82zm-36.7,16.17l0,3.09l0.97,0c1.31,0 1.88,-0.55 1.88,-1.52c0,-0.95 -0.61,-1.57 -1.99,-1.57l-0.86,0zm0,-3.34l0,2.57l0.44,0c0.58,0 1,-0.07 1.26,-0.21c0.36,-0.2 0.53,-0.42 0.53,-0.99c0,-0.54 -0.16,-0.96 -0.5,-1.16c-0.24,-0.14 -0.67,-0.21 -1.28,-0.21l-0.45,0zm-0.75,7.19l0,-7.97l1.27,0c1.71,0 2.57,0.72 2.57,2.15c0,0.7 -0.25,1.21 -0.76,1.56c0.45,0.11 0.81,0.36 1.07,0.74c0.26,0.38 0.31,0.81 0.31,1.3c0,0.75 -0.27,1.32 -0.8,1.7c-0.49,0.35 -1.05,0.52 -1.87,0.52l-1.79,0zm16.96,-7.39c-0.89,0 -1.65,0.32 -2.28,0.96c-0.62,0.64 -0.94,1.42 -0.94,2.32c0,0.9 0.32,1.67 0.95,2.32c0.62,0.64 1.38,0.96 2.27,0.96c0.89,0 1.65,-0.32 2.28,-0.96c0.63,-0.65 0.94,-1.42 0.94,-2.32c0,-0.9 -0.31,-1.68 -0.94,-2.32c-0.62,-0.64 -1.38,-0.96 -2.28,-0.96zm0,-0.82c1.13,0 2.09,0.4 2.89,1.2c0.8,0.81 1.21,1.78 1.21,2.91c0,1.14 -0.41,2.1 -1.21,2.9c-0.8,0.8 -1.76,1.2 -2.89,1.2c-1.12,0 -2.09,-0.4 -2.89,-1.2c-0.8,-0.8 -1.2,-1.76 -1.2,-2.9c0,-1.13 0.4,-2.1 1.2,-2.91c0.8,-0.8 1.77,-1.2 2.89,-1.2zm52.4,0.82c-0.9,0 -1.66,0.32 -2.28,0.96c-0.63,0.64 -0.94,1.42 -0.94,2.32c0,0.9 0.31,1.67 0.94,2.32c0.63,0.64 1.39,0.96 2.28,0.96c0.89,0 1.64,-0.32 2.27,-0.96c0.63,-0.65 0.94,-1.42 0.94,-2.32c0,-0.9 -0.31,-1.68 -0.93,-2.32c-0.63,-0.64 -1.39,-0.96 -2.28,-0.96zm0,-0.82c1.12,0 2.08,0.4 2.89,1.2c0.8,0.81 1.2,1.78 1.2,2.91c0,1.14 -0.4,2.1 -1.2,2.9c-0.81,0.8 -1.77,1.2 -2.89,1.2c-1.13,0 -2.09,-0.4 -2.89,-1.2c-0.81,-0.8 -1.21,-1.76 -1.21,-2.9c0,-1.13 0.4,-2.1 1.21,-2.91c0.8,-0.8 1.76,-1.2 2.89,-1.2zm52.08,1.23l-0.68,0.46c-0.32,-0.58 -0.76,-0.87 -1.32,-0.87c-0.34,0 -0.64,0.12 -0.89,0.35c-0.25,0.23 -0.38,0.53 -0.38,0.88c0,0.3 0.14,0.57 0.41,0.79c0.16,0.14 0.43,0.29 0.79,0.45l0.51,0.24c0.6,0.27 1.03,0.54 1.29,0.81c0.36,0.37 0.55,0.84 0.55,1.41c0,0.69 -0.24,1.27 -0.7,1.74c-0.47,0.48 -1.04,0.71 -1.71,0.71c-0.61,0 -1.13,-0.18 -1.56,-0.56c-0.43,-0.37 -0.7,-0.87 -0.82,-1.49l0.83,-0.24c0.05,0.41 0.22,0.76 0.51,1.05c0.28,0.28 0.62,0.42 1.02,0.42c0.42,0 0.79,-0.15 1.1,-0.44c0.32,-0.3 0.47,-0.67 0.47,-1.1c0,-0.42 -0.14,-0.75 -0.43,-1.01c-0.19,-0.17 -0.51,-0.36 -0.98,-0.57l-0.46,-0.21c-0.54,-0.24 -0.93,-0.48 -1.17,-0.73c-0.33,-0.35 -0.5,-0.78 -0.5,-1.3c0,-0.59 0.22,-1.08 0.65,-1.47c0.41,-0.36 0.9,-0.55 1.49,-0.55c0.9,0 1.56,0.41 1.98,1.23zm-16.17,6.98l0,-7.95l4.21,0l0,0.82l-3.36,0l0,2.36l3.11,0l0,0.83l-3.11,0l0,3.12l3.36,0l0,0.82l-4.21,0zm-130.91,-7.96l0,7.14l2.12,0l0,0.82l-2.97,0l0,-7.96l0.85,0zm82.29,0.82l0,7.14l-0.85,0l0,-7.14l-1.86,0l0,-0.82l4.58,0l0,0.82l-1.87,0zm-27.06,0l0,2.86l0.27,0c0.59,0 1.04,-0.08 1.33,-0.25c0.41,-0.23 0.61,-0.62 0.61,-1.17c0,-0.59 -0.19,-1 -0.59,-1.22c-0.27,-0.14 -0.73,-0.22 -1.36,-0.22l-0.26,0zm0,3.64l0,3.5l-0.85,0l0,-7.96l1.11,0c1.87,0 2.81,0.73 2.81,2.19c0,0.62 -0.17,1.12 -0.52,1.53c-0.35,0.4 -0.81,0.62 -1.4,0.67l2.44,3.57l-1.05,0l-2.32,-3.5l-0.22,0zm63.66,-3.64l0,2.86l0.26,0c0.59,0 1.03,-0.08 1.33,-0.25c0.41,-0.23 0.61,-0.62 0.61,-1.17c0,-0.59 -0.19,-1 -0.59,-1.22c-0.28,-0.14 -0.73,-0.22 -1.36,-0.22l-0.25,0zm0,3.64l0,3.5l-0.86,0l0,-7.96l1.11,0c1.87,0 2.81,0.73 2.81,2.19c0,0.62 -0.17,1.12 -0.52,1.53c-0.35,0.4 -0.81,0.62 -1.41,0.67l2.45,3.57l-1.05,0l-2.32,-3.5l-0.21,0zm44.63,-51.57l-17.28,23.08l0,17.39l-5.88,0l0,-17.39l-17.28,-23.08l6.78,0l13.44,18.04l13.43,-18.04l6.79,0z" fill="black" fill-rule="evenodd"/>
  </symbol>
 </defs>
 <g class="layer">
  <title>Layer 1</title>
  <use id="svg_48" transform="matrix(0.990158 0 0 0.990158 -40.8819 1.21617)" x="-18.18" xlink:href="#svg_47" y="-13.13"/>
 </g>
</svg>
